icons/user-2-line.svg

<svg viewBox="0 0 24 24" fill="currentColor" xmlns="http://www.w3.org/2000/svg"><path d="M4 22C4 17.5817 7.58172 14 12 14C16.4183 14 20 17.5817 20 22H4ZM13 16.083V20H17.6586C16.9423 17.9735 15.1684 16.4467 13 16.083ZM11 20V16.083C8.83165 16.4467 7.05766 17.9735 6.34141 20H11ZM12 13C8.685 13 6 10.315 6 7C6 3.685 8.685 1 12 1C15.315 1 18 3.685 18 7C18 10.315 15.315 13 12 13ZM12 11C14.2104 11 16 9.21043 16 7C16 4.78957 14.2104 3 12 3C9.78957 3 8 4.78957 8 7C8 9.21043 9.78957 11 12 11Z"/></svg>

<svg xmlns="http://www.w3.org/2000/svg" viewBox="0 0 24 24">
    <g>
        <path fill="none" d="M0 0h24v24H0z"/>
        <path d="M4 22a8 8 0 1 1 16 0H4zm9-5.917V20h4.659A6.009 6.009 0 0 0 13 16.083zM11 20v-3.917A6.009 6.009 0 0 0 6.341 20H11zm1-7c-3.315 0-6-2.685-6-6s2.685-6 6-6 6 2.685 6 6-2.685 6-6 6zm0-2c2.21 0 4-1.79 4-4s-1.79-4-4-4-4 1.79-4 4 1.79 4 4 4z"/>
    </g>
</svg>
